flaticon/web-design/promotion.svg

<svg xmlns="http://www.w3.org/2000/svg" width="32" height="32" viewBox="0 0 24 24">
    <path d="M 19.214844 0 L 15.609375 0 C 15.398438 0 15.230469 0.167969 15.230469 0.375 L 15.230469 2.667969 L 5.074219 9.21875 L 0.777344 9.21875 C 0.570312 9.21875 0.402344 9.386719 0.402344 9.59375 L 0.402344 14.40625 C 0.402344 14.40625 0.402344 14.410156 0.402344 14.414062 C 0.402344 14.421875 0.402344 14.425781 0.402344 14.433594 C 0.402344 14.441406 0.402344 14.449219 0.40625 14.453125 C 0.40625 14.457031 0.40625 14.460938 0.40625 14.464844 L 1.609375 22.078125 C 1.636719 22.261719 1.792969 22.398438 1.980469 22.398438 L 5.1875 22.398438 C 5.394531 22.398438 5.5625 22.230469 5.5625 22.019531 L 5.5625 19.191406 L 6.386719 19.191406 C 6.597656 19.191406 6.765625 19.023438 6.765625 18.8125 L 6.765625 16.808594 C 6.765625 16.601562 6.597656 16.433594 6.386719 16.433594 L 5.5625 16.433594 L 5.5625 15.113281 L 15.230469 21.664062 L 15.230469 23.625 C 15.230469 23.832031 15.398438 24 15.609375 24 L 19.214844 24 C 19.421875 24 19.589844 23.832031 19.589844 23.625 L 19.589844 0.375 C 19.589844 0.167969 19.421875 0 19.214844 0 Z M 4.808594 16.808594 L 4.808594 21.644531 L 2.300781 21.644531 L 1.214844 14.78125 L 4.808594 14.78125 Z M 4.808594 14.027344 L 1.152344 14.027344 L 1.152344 9.972656 L 4.808594 9.972656 Z M 6.011719 17.1875 L 6.011719 18.4375 L 5.5625 18.4375 L 5.5625 17.1875 Z M 15.230469 20.757812 L 5.5625 14.207031 L 5.5625 9.800781 L 15.230469 3.5625 Z M 18.839844 23.25 L 15.984375 23.25 L 15.984375 0.75 L 18.839844 0.75 Z M 18.839844 23.25"/>
    <path d="M3.984375 10.824219L2.378906 10.824219C2.171875 10.824219 2.003906 10.992188 2.003906 11.199219 2.003906 11.40625 2.171875 11.574219 2.378906 11.574219L3.984375 11.574219C4.191406 11.574219 4.359375 11.40625 4.359375 11.199219 4.359375 10.992188 4.191406 10.824219 3.984375 10.824219zM23.222656 11.222656L21.621094 11.222656C21.414062 11.222656 21.246094 11.390625 21.246094 11.597656 21.246094 11.808594 21.414062 11.976562 21.621094 11.976562L23.222656 11.976562C23.429688 11.976562 23.597656 11.808594 23.597656 11.597656 23.597656 11.390625 23.429688 11.222656 23.222656 11.222656zM22.421875 7.203125C22.316406 7.023438 22.085938 6.960938 21.90625 7.066406L20.519531 7.867188C20.339844 7.96875 20.277344 8.199219 20.382812 8.378906 20.453125 8.5 20.578125 8.566406 20.707031 8.566406 20.769531 8.566406 20.835938 8.550781 20.894531 8.515625L22.285156 7.714844C22.464844 7.613281 22.523438 7.382812 22.421875 7.203125zM22.285156 15.484375L20.894531 14.679688C20.714844 14.578125 20.484375 14.636719 20.382812 14.820312 20.277344 15 20.339844 15.226562 20.519531 15.332031L21.90625 16.132812C21.96875 16.167969 22.03125 16.183594 22.09375 16.183594 22.226562 16.183594 22.351562 16.117188 22.421875 15.996094 22.523438 15.816406 22.464844 15.585938 22.285156 15.484375zM18.011719 1.601562C17.804688 1.601562 17.636719 1.773438 17.636719 1.980469L17.636719 6.789062C17.636719 6.996094 17.804688 7.164062 18.011719 7.164062 18.21875 7.164062 18.386719 6.996094 18.386719 6.789062L18.386719 1.980469C18.386719 1.773438 18.21875 1.601562 18.011719 1.601562zM18.011719 8.015625C17.804688 8.015625 17.636719 8.183594 17.636719 8.390625L17.636719 10.398438C17.636719 10.605469 17.804688 10.773438 18.011719 10.773438 18.21875 10.773438 18.386719 10.605469 18.386719 10.398438L18.386719 8.390625C18.386719 8.183594 18.21875 8.015625 18.011719 8.015625zM18.011719 8.015625"/>
</svg>

<svg xmlns="http://www.w3.org/2000/svg" width="32" height="32" viewBox="0 0 24 24">
    <path d="M19.215 0h-3.606a.376.376 0 0 0-.379.375v2.293L5.074 9.218H.777a.375.375 0 0 0-.375.376v4.84c0 .007 0 .015.004.02v.01l1.203 7.614c.028.184.184.32.371.32h3.207a.376.376 0 0 0 .375-.378V19.19h.825c.21 0 .379-.168.379-.378v-2.004a.376.376 0 0 0-.38-.375h-.824v-1.32l9.668 6.55v1.961c0 .207.168.375.38.375h3.605a.375.375 0 0 0 .375-.375V.375A.375.375 0 0 0 19.215 0zM4.809 16.809v4.836H2.3L1.215 14.78h3.594zm0-2.782H1.152V9.973H4.81zm1.203 3.16v1.25h-.45v-1.25zm9.218 3.57l-9.668-6.55V9.801l9.668-6.239zm3.61 2.493h-2.856V.75h2.856zm0 0"/>
    <path d="M3.984 10.824H2.38a.375.375 0 0 0 0 .75h1.605a.375.375 0 0 0 0-.75zm0 0M23.223 11.223H21.62a.375.375 0 0 0-.375.375c0 .21.168.379.375.379h1.602a.376.376 0 0 0 .375-.38.375.375 0 0 0-.375-.374zm0 0M22.422 7.203a.377.377 0 0 0-.516-.137l-1.386.801a.372.372 0 0 0-.137.512.374.374 0 0 0 .512.137l1.39-.801a.375.375 0 0 0 .137-.512zm0 0M22.285 15.484l-1.39-.804a.373.373 0 0 0-.512.14.373.373 0 0 0 .137.512l1.386.8a.377.377 0 0 0 .516-.136.375.375 0 0 0-.137-.512zm0 0M18.012 1.602a.378.378 0 0 0-.375.378v4.81a.375.375 0 0 0 .75 0V1.98a.378.378 0 0 0-.375-.378zm0 0M18.012 8.016a.375.375 0 0 0-.375.375v2.007a.375.375 0 0 0 .75 0V8.391a.375.375 0 0 0-.375-.375zm0 0"/>
</svg>
